logo.svg

<svg xmlns="http://www.w3.org/2000/svg" width="200" height="60" viewBox="0 0 200 60"><path fill="#010101" d="M21.2 7.5v24.5h-6.9v-7.8c0-3.9-3.2-7.2-7.2-7.2s-7.1 3.2-7.1 7.2c0 2 .8 3.8 2.1 5.1 0 0 1.8 2.3 1.8 4.5 0 2.1-1.8 4.5-1.8 4.5-1.3 1.2-2.1 3-2.1 5 0 4 3.2 7.2 7.2 7.2s7.2-3.2 7.2-7.2v-7.8h6.9v19.7c0 2.6 2.1 4.8 4.8 4.8h169.2c2.6 0 4.8-2.2 4.8-4.8v-47.7h-178.9zm-14 38.2c-1.3 0-2.4-1.1-2.4-2.4 0-1 .6-1.9 1.5-2.2.3-.1.6-.2.9-.2 1.3 0 2.4 1.1 2.4 2.4 0 1.4-1.1 2.4-2.4 2.4m2.4-21.5c0 1.3-1.1 2.4-2.4 2.4-.3 0-.6-.1-.9-.2-.9-.4-1.5-1.2-1.5-2.2 0-1.3 1.1-2.4 2.4-2.4 1.3 0 2.4 1.1 2.4 2.4z"/><path fill="#FEC411" d="M51 0h29.8v7.5h-29.8z"/><path fill="#68A644" d="M80.8 0h29.8v7.5h-29.8z"/><path fill="#E97D9C" d="M110.6 0h29.8v7.5h-29.8z"/><path fill="#77C6D3" d="M140.4 0h29.8v7.5h-29.8z"/><path fill="#fff" d="M60.5 22.1c-1 0-1.9.8-1.9 1.9v19.5c0 1 .8 1.9 1.9 1.9 1 0 1.9-.8 1.9-1.9v-19.5c-.1-1-.9-1.9-1.9-1.9m-8.6 0h-16.4c-1 0-1.7.8-1.7 1.7 0 1 .8 1.7 1.7 1.7h6.5v17.9c0 1 .8 1.9 1.9 1.9 1 0 1.9-.8 1.9-1.9v-17.8h6.2c1 0 1.7-.8 1.7-1.7 0-1-.8-1.8-1.8-1.8m63.6.4c-.8-.6-2-.4-2.6.4l-6.6 9.2-6.6-9.2c-.6-.8-1.8-1-2.6-.4s-1 1.8-.4 2.6l7.8 10.9v7.6c0 1 .8 1.9 1.9 1.9 1 0 1.9-.8 1.9-1.9v-7.6l7.8-10.9c.4-.8.2-2-.6-2.6m-25.4-.4c-1 0-1.9.8-1.9 1.9v14.7l-12.9-15.9c0-.1-.1-.1-.2-.2l-.1-.1c-.3-.3-.7-.4-1.2-.4-1 0-1.9.8-1.9 1.9v19.5c0 1 .8 1.9 1.9 1.9 1 0 1.9-.8 1.9-1.9v-14.7l12.9 15.8c.3.5.9.8 1.5.8 1 0 1.9-.8 1.9-1.9v-19.5c-.1-1-.9-1.9-1.9-1.9m62.9-.3c-6.4 0-10.3 4.6-10.3 11.8 0 7.6 3.8 12.2 10.3 12.2 6.6 0 10.5-4.6 10.5-12.2 0-7.1-4.1-11.8-10.5-11.8m0 20.5c-4.4 0-6.6-3.2-6.6-8.8 0-3 .9-8.3 6.6-8.3 6.1 0 6.8 5.9 6.8 8.3 0 3.9-1.2 8.8-6.8 8.8m27-20.2h-8c-1 0-1.9.8-1.9 1.9v19.6c0 1 .8 1.9 1.9 1.9 1 0 1.9-.8 1.9-1.9v-7.6h6.1c3.6 0 6.5-3.1 6.5-6.9 0-3.9-2.9-7-6.5-7m0 10.4h-6.1v-6.9h6.1c1.7 0 3 1.5 3 3.5 0 1.9-1.3 3.4-3 3.4m-45.5.5c.9-1.1 1.5-2.6 1.5-4.3 0-3.7-2.7-6.6-6.2-6.6h-7.5c-.5 0-1 .2-1.3.6-.4.3-.6.8-.6 1.4v19.5c0 .5.2 1 .6 1.4.3.3.7.5 1.2.5h8.6c3.6 0 6.3-3 6.3-6.8.2-2.4-.9-4.5-2.6-5.7m-2-4.3c0 1.8-1.2 3.1-2.7 3.1h-5.7v-6.2h5.7c1.6 0 2.7 1.3 2.7 3.1m-1.6 13.2h-6.7v-6.6h6.7c1.6 0 2.9 1.4 2.9 3.3s-1.2 3.3-2.9 3.3"/><path fill="#0D89A0" d="M51 0h-25c-2.6 0-4.8 2.2-4.8 4.8v2.7h29.8v-7.5z"/><path fill="#E8493F" d="M195.2 0h-25v7.5h29.8v-2.7c0-2.6-2.1-4.8-4.8-4.8"/></svg>

<?xml version="1.0" encoding="utf-8"?>
<!-- Generator: Adobe Illustrator 16.0.0, SVG Export Plug-In . SVG Version: 6.00 Build 0)  -->
<!DOCTYPE svg PUBLIC "-//W3C//DTD SVG 1.1//EN" "http://www.w3.org/Graphics/SVG/1.1/DTD/svg11.dtd">
<svg version="1.1" id="Layer_1" xmlns="http://www.w3.org/2000/svg" xmlns:xlink="http://www.w3.org/1999/xlink" x="0px" y="0px"
	 width="200px" height="60px" viewBox="0 0 200 60" enable-background="new 0 0 200 60" xml:space="preserve">
<path fill="#010101" d="M21.2,32.016L14.2,32v-7.799C14.2,20.3,11,17,7,17s-7.1,3.2-7.1,7.2c0,2,0.8,3.8,2.1,5.1
	c0,0,1.8,2.3,1.8,4.5C3.8,35.9,2,38.3,2,38.3c-1.3,1.199-2.1,3-2.1,5c0,4,3.2,7.199,7.2,7.199s7.2-3.199,7.2-7.199v-7.8h6.9V32.016z
	 M7.101,45.701c-1.3,0-2.4-1.102-2.4-2.4c0-1,0.6-1.9,1.5-2.201C6.5,41,6.8,40.9,7.101,40.9c1.3,0,2.4,1.1,2.4,2.399
	C9.5,44.701,8.4,45.701,7.101,45.701 M9.5,24.201c0,1.3-1.1,2.4-2.4,2.4c-0.3,0-0.6-0.1-0.9-0.2c-0.9-0.4-1.5-1.2-1.5-2.2
	c0-1.3,1.1-2.4,2.4-2.4C8.4,21.8,9.5,22.9,9.5,24.201z"/>
<path fill="#010101" d="M21.188,7.5v24.516V35.5v19.699c0,2.6,2.1,4.801,4.8,4.801h169.2c2.601,0,4.799-2.201,4.799-4.801V7.5"/>
<path fill="#FEC411" d="M51,0h29.8v7.5H51V0z"/>
<path fill="#68A644" d="M80.8,0h29.8v7.5H80.8V0z"/>
<path fill="#E97D9C" d="M110.6,0H140.4v7.5H110.6V0z"/>
<path fill="#77C6D3" d="M140.4,0h29.8v7.5h-29.8V0z"/>
<path fill="#FFFFFF" d="M60.5,22.1c-1,0-1.9,0.8-1.9,1.9v19.5c0,1,0.8,1.9,1.9,1.9c1,0,1.9-0.801,1.9-1.9V24
	C62.3,23,61.5,22.1,60.5,22.1 M51.9,22.1H35.5c-1,0-1.7,0.8-1.7,1.7c0,1,0.8,1.7,1.7,1.7H42v17.9c0,1,0.8,1.898,1.9,1.898
	c1,0,1.9-0.8,1.9-1.898V25.6H52c1,0,1.7-0.8,1.7-1.7C53.7,22.9,52.9,22.1,51.9,22.1 M115.5,22.5c-0.8-0.6-2-0.4-2.6,0.4l-6.602,9.2
	l-6.6-9.2c-0.6-0.8-1.8-1-2.6-0.4c-0.8,0.6-1,1.8-0.4,2.6l7.8,10.9v7.6c0,1,0.8,1.9,1.899,1.9c1,0,1.899-0.8,1.899-1.9V36l7.8-10.9
	C116.5,24.3,116.3,23.1,115.5,22.5 M90.1,22.1c-1,0-1.9,0.8-1.9,1.9v14.7L75.3,22.8c0-0.1-0.1-0.1-0.2-0.2L75,22.5
	c-0.3-0.3-0.7-0.4-1.2-0.4c-1,0-1.9,0.8-1.9,1.9v19.5c0,1,0.8,1.9,1.9,1.9c1,0,1.9-0.801,1.9-1.9V28.8l12.9,15.8
	c0.3,0.5,0.9,0.801,1.5,0.801c1,0,1.9-0.801,1.9-1.899V24C91.9,23,91.1,22.1,90.1,22.1 M153,21.8c-6.4,0-10.3,4.6-10.3,11.8
	c0,7.602,3.8,12.2,10.3,12.2c6.6,0,10.5-4.6,10.5-12.2C163.5,26.5,159.4,21.8,153,21.8 M153,42.3c-4.4,0-6.6-3.2-6.6-8.8
	c0-3,0.898-8.3,6.6-8.3c6.1,0,6.8,5.899,6.8,8.3C159.8,37.4,158.6,42.3,153,42.3 M180,22.1h-8c-1,0-1.9,0.8-1.9,1.9v19.6
	c0,1,0.801,1.9,1.9,1.9c1,0,1.9-0.8,1.9-1.9V36h6.1c3.6,0,6.5-3.1,6.5-6.9C186.5,25.2,183.6,22.1,180,22.1 M180,32.5h-6.1v-6.9h6.1
	c1.7,0,3,1.5,3,3.5C183,31,181.7,32.5,180,32.5 M134.5,33c0.9-1.1,1.5-2.6,1.5-4.3c0-3.7-2.7-6.6-6.2-6.6h-7.5c-0.5,0-1,0.2-1.3,0.6
	c-0.4,0.3-0.6,0.8-0.6,1.4v19.5c0,0.5,0.199,1,0.6,1.4c0.3,0.3,0.7,0.5,1.2,0.5h8.6c3.601,0,6.3-3,6.3-6.8
	C137.3,36.3,136.2,34.2,134.5,33 M132.5,28.7c0,1.8-1.2,3.1-2.7,3.1h-5.7v-6.2h5.7C131.4,25.6,132.5,26.9,132.5,28.7 M130.9,41.9
	h-6.7V35.3h6.7c1.6,0,2.898,1.4,2.898,3.3C133.8,40.5,132.6,41.9,130.9,41.9"/>
<path fill="#0D89A0" d="M51,0H26c-2.6,0-4.8,2.2-4.8,4.8v2.7H51V0z"/>
<path fill="#E8493F" d="M195.2,0h-25v7.5H200V4.8C200,2.2,197.9,0,195.2,0"/>
</svg>
